X:23
T:The Death of General Wolfe
N:page 17 on manuscript
M:3/8
Q:50
L:1/8
K:F
C/>C/ | F>GA/B/ | c2 d/>e/ | fFF | F2 c | f>ed | c>BA | G2 G | c2 e/>f/ | g2 G/>G/ | Afd |
c=BG | g>fe | d>c=B | c2 c | c2 G/>A/ | B2 B/>c/ | d>cB | A2 c/>c/ | fcB | A/c/B/A/G/F/ | c2 c |
c>d_e | d2 B/>A/ | G2 f/>e/ | {f}e2 c/>c/ | f>cd | BGc | F/E/F/G/A/B/ | Tc2 g/>g/ | a>ef | BGc | F2 z ||

